X:1
T:What a Morning That Will Be
T:What a Morning That Will Be
T:James Holmes Rosecrans
T:Lucinda M. Beal Bateman, 1890
T:Public Domain Courtesy of the Cyber Hymnal™
T:Public Domain Courtesy of the Cyber Hymnal™
C:James Holmes Rosecrans
Z:Public Domain
Z:Courtesy of the Cyber Hymnal™
%%score ( 1 2 ) ( 3 4 )
L:1/8
Q:1/4=105
M:4/4
K:Ab
V:1 treble 
V:2 treble 
V:3 bass 
V:4 bass 
V:1
"^Refrain" E>E | A>[EG] [CA]>[EB] [Ac]2 [Bd]>[GB] | [Ac]4 [EA]2 [Ec]>[Ec] | [Ge]4 [GB]2 [Bd]>[GB] | %4
w: ~ ~|~ ~ ~ ~ ~ ~ ~|~ ~ ~ ~|~ ~ ~ ~|
w: What a|morn- ing that will be, Hal- le-|lu- jah! What a|morn- ing! What a|
w: ~ ~|~ ~ ~ ~ ~ ~ ~|~ ~ ~ ~|~ ~ ~ ~|
w: ~ ~|~ ~ ~ ~ ~ ~ ~|~ ~ ~ ~|~ ~ ~ ~|
 [Ge]4 [Ac]2 E>E | A>[EG] [CA]>[EB] [Ac]2 [Bd]>[GB] | [Ac]4 [EA]2 [Ec]>[Ec] | %7
w: ~ ~ ~ ~|~ ~ ~ ~ ~ ~ ~|~ ~ ~ ~|
w: morn- ing! When our|eyes the King shall see, Hal- le-|lu- jah! What a|
w: ~ ~ ~ ~|~ ~ ~ ~ ~ ~ ~|~ ~ ~ ~|
w: ~ ~ ~ ~|~ ~ ~ ~ ~ ~ ~|~ ~ ~ ~|
 [Ge]3 [Ge] [Ge]2 [EG]2 | [EA]6 ||"^Solo or Unison" ([A,C][B,D]) | [CE]2 [CE]2 [CE]2 (FG) x2 | %11
w: ~ ~ ~ ~|~|1.~When *|all the clouds of *|
w: morn- ing that will|be!|2.~The *|dreams of earth will *|
w: ~ ~ ~ ~|~|3.~No *|wak- ing doubts, no *|
w: ~ ~ ~ ~|~|4.~Oh, *|come a- way to *|
 [CA]2 [CA]2 [CA]2 ([EG][FA]) | [GB]2 [GB]2 [GB]2 ([FA][GB]) | [Ac]2 [Ac]2 [Ac]2 ([CE][DF]) | %14
w: dark- ness break, When *|all the dead from *|dust a- wake, And *|
w: soon be o’er, And *|death and sor- row *|come no more, When *|
w: darken- ing fears, No *|long good- byes in *|grief and tears, But *|
w: that bright land, Be- *|fore the throne of *|God we’ll stand, And *|
 [CE]2 [CE]2 [CE]2 (FG) | [CA]2 [CA]2 [CA]2 ([B,G][CA]) | [DB]2 [DB]2 [DB]2 ([CA][DB]) | %17
w: all the just His *|like- ness take, Oh, *|what a morn- ing *|
w: we a- wake on *|yon fair shore, Oh, *|what a morn- ing *|
w: joy su- preme thro’ *|end- less years, Oh, *|what a morn- ing *|
w: sing with all the *|ran- somed band, Oh, *|what a morn- ing *|
 [Ec]2 [DB]2 !fermata![CA]2 ||"^Full Chorus" [EA]>[EA] | [Fd]>[Fd] [Fd]>[Fd] [Fd]2 [Fd]>[FB] | %20
w: that will be!|||
w: that will be!|Then, a-|wake and swell the song, Hal- le-|
w: that will be!|||
w: that will be!|||
 [Ec]4 [EA]2 [EA]>[EA] | [EB]>[EB] [EB]>[EB] [EB]2 [EB]>[EG] | [EA]4 [Ac]2 [EA]>[EA] | %23
w: |||
w: lu- jah! Joy- ful|notes of praise pro- long, Hal- le-|lu- jah! When we|
w: |||
w: |||
 [Fd]>[Fd] [Fd]>[Fd] [Fd]2 [Fd]>[FB] | [Ec]4 [EA]2 [EA]>[EA] | %25
w: ||
w: join the ran- somed throng, Hal- le-|lu- jah! What a|
w: ||
w: ||
 [EB]>[EB] [EB]>[EB] [EB]2 [Ec]>[EB] | [EA]6 |] %27
w: ||
w: day of love and peace that will|be.|
w: ||
w: ||
V:2
 E>E | A3/2 x13/2 | x8 | x8 | x6 E>E | A3/2 x13/2 | x8 | x8 | x6 || x2 | x6 D2 x2 | x8 | x8 | x8 | %14
 x6 D2 | x8 | x8 | x6 || x2 | x8 | x8 | x8 | x8 | x8 | x8 | x8 | x6 |] %27
V:3
 E,>E, | A,>[E,G,] [C,A,]>[E,B,] [A,C]2 [E,E]>[E,E] | [A,E]4 [A,C]2 A,>A, | %3
 ([E,B,]>[E,B,][E,B,]>[E,B,]) [E,E]2 [E,E]>[E,E] | ([E,B,]>[E,B,][E,B,]>[E,B,]) A,2 E,>E, | %5
 A,>[E,G,] [C,A,]>[E,B,] [A,C]2 [E,E]>[E,E] | [A,E]4 [A,C]2 z2 | %7
 [E,B,]>[E,B,] [E,B,]>[E,B,] [E,B,]2 [E,D]2 | [A,,C]6 || z2 | z2 z2 x6 | z2 E,2 E,2 z2 | %12
 z2 E,2 E,2 z2 | z2 A,2 A,2 z2 | z2 A,2 A,2 z2 | z2 E,2 E,2 z2 | z2 E,2 E,2 z2 | %17
 [A,,A,]2 [F,,E,]2 A,,2 || [A,C]>[A,C] | [D,A,]>[D,A,] [D,A,]>[D,A,] [D,A,]2 [D,A,]>[F,A,] | %20
 A,4 A,2 [A,C]>[A,C] | [E,D]>[E,D] [E,D]>[E,D] [E,D]2 [E,D]>[E,B,] | [A,C]4 [A,E]2 [A,C]>[A,C] | %23
 [D,A,]>[D,A,] [D,A,]>[D,A,] [D,A,]2 [D,A,]>[F,A,] | A,4 [A,C]2 [A,C]>[A,C] | %25
 [E,D]>[E,D] [E,D]>[E,D] [E,D]2 [E,E]>[E,D] | [A,,C]6 |] %27
V:4
 E,>E, | A,3/2 x13/2 | x6 A,>A, | x8 | x4 A,2 E,>E, | A,3/2 x13/2 | x8 | x8 | x6 || x2 | %10
 (A,,6 A,2) A,2 | A,,6 x2 | E,,6 x2 | A,,6 x2 | A,,6 x2 | A,,6 x2 | E,,6 x2 | x6 || x2 | x8 | %20
 A,4 A,2 x2 | x8 | x8 | x8 | A,4 x4 | x8 | x6 |] %27

